contributed-vectors/booksy.svg

<svg xmlns="http://www.w3.org/2000/svg" xml:space="preserve" style="fill-rule:evenodd;clip-rule:evenodd;stroke-linejoin:round;stroke-miterlimit:2" viewBox="0 0 192 192"><path d="M164.5 21.5c0-5.519-4.481-10-10-10h-133c-5.519 0-10 4.481-10 10v133c0 5.519 4.481 10 10 10h133c5.519 0 10-4.481 10-10v-133Z" style="fill:#96dfd3" transform="translate(8 8)"/><path d="M85.453 75.984c5.682 4.858 5.532-3.927 5.532-5.676V33.084a3.003 3.003 0 0 1 3-3H96.8a3 3 0 0 1 3 3v19.51a22.106 22.106 0 0 1 13.397-4.498c12.259 0 22.212 9.953 22.212 22.212s-9.953 22.212-22.212 22.212c-25.706 0-31.835-14.795-43.327-14.795-6.52 0-11.435 3.392-14.259 10.238a2.985 2.985 0 0 1-3.994 1.56c-.47-.196-.943-.413-1.39-.618a2.998 2.998 0 0 1-1.573-3.747c3.66-9.812 13.267-14.908 21.423-14.85 8.814.063 15.376 5.676 15.376 5.676Zm27.744-19.073c7.394 0 13.397 6.003 13.397 13.397s-6.003 13.397-13.397 13.397c-11.352 0-13.397-6.003-13.397-13.397s6.003-13.397 13.397-13.397Z" style="fill:#fff" transform="translate(1.496 33.698)"/></svg>

<?xml version="1.0" encoding="UTF-8" standalone="no"?>
<!DOCTYPE svg PUBLIC "-//W3C//DTD SVG 1.1//EN" "http://www.w3.org/Graphics/SVG/1.1/DTD/svg11.dtd">
<svg width="100%" height="100%" viewBox="0 0 192 192" version="1.1" xmlns="http://www.w3.org/2000/svg" xmlns:xlink="http://www.w3.org/1999/xlink" xml:space="preserve" xmlns:serif="http://www.serif.com/" style="fill-rule:evenodd;clip-rule:evenodd;stroke-linejoin:round;stroke-miterlimit:2;">
    <g id="Layer1">
        <g transform="matrix(1,0,0,1,8,8)">
            <path d="M164.5,21.5C164.5,15.981 160.019,11.5 154.5,11.5L21.5,11.5C15.981,11.5 11.5,15.981 11.5,21.5L11.5,154.5C11.5,160.019 15.981,164.5 21.5,164.5L154.5,164.5C160.019,164.5 164.5,160.019 164.5,154.5L164.5,21.5Z" style="fill:rgb(150,223,211);"/>
        </g>
        <g transform="matrix(1,0,0,1,1.49551,33.6978)">
            <path d="M85.453,75.984C91.135,80.842 90.985,72.057 90.985,70.308L90.985,33.084C90.985,32.289 91.301,31.526 91.863,30.963C92.426,30.4 93.189,30.084 93.985,30.084C94.894,30.084 95.891,30.084 96.8,30.084C97.596,30.084 98.359,30.4 98.922,30.963C99.484,31.526 99.8,32.289 99.8,33.084C99.8,39.212 99.8,52.594 99.8,52.594C103.525,49.771 108.167,48.096 113.197,48.096C125.456,48.096 135.409,58.049 135.409,70.308C135.409,82.567 125.456,92.52 113.197,92.52C87.491,92.52 81.362,77.725 69.87,77.725C63.35,77.725 58.435,81.117 55.611,87.963C55.299,88.708 54.697,89.295 53.945,89.589C53.192,89.883 52.352,89.859 51.617,89.523C51.147,89.327 50.674,89.11 50.227,88.905C48.807,88.256 48.123,86.626 48.654,85.158C52.314,75.346 61.921,70.25 70.077,70.308C78.891,70.371 85.453,75.984 85.453,75.984ZM113.197,56.911C120.591,56.911 126.594,62.914 126.594,70.308C126.594,77.702 120.591,83.705 113.197,83.705C101.845,83.705 99.8,77.702 99.8,70.308C99.8,62.914 105.803,56.911 113.197,56.911Z" style="fill:white;"/>
        </g>
    </g>
</svg>
